images/phone.svg

<svg fill="none" height="25" viewBox="0 0 25 25" width="25" xmlns="http://www.w3.org/2000/svg"><path clip-rule="evenodd" d="m18.6844 1.00009 4.4211 1.26316c1.2104.03485 1.8947.89754 1.8947 1.89474 0 11.54941-9.36 20.84681-20.8421 20.84211-.99947 0-1.86189-.6845-1.89473-1.8947l-1.26316-4.4211c-.175728-.778.34453-1.8095 1.26316-2.5263l5.05263-1.8947c.61871-.211 1.64986.0422 2.52631.6315l1.26319 1.8948c2.449-1.2088 4.4738-3.2343 5.6842-5.6842l-1.8948-1.2632c-.5858-.87697-.8389-1.90846-.6315-2.52632l1.8947-5.05263c.7195-.91693 1.7506-1.442048 2.5263-1.26316zm-15.15787 17.68421 1.26315 4.4211c9.97262-.0472 18.26872-8.3432 18.31582-18.31583l-4.4211-1.26316-1.8947 4.42105 3.1579 2.52634c-2.0761 4.9667-4.5164 7.3976-9.4737 9.4737l-2.52632-3.1579z" fill="#feb803" fill-rule="evenodd"/></svg>

<svg width="25" height="25" viewBox="0 0 25 25" fill="none" xmlns="http://www.w3.org/2000/svg">
<path fill-rule="evenodd" clip-rule="evenodd" d="M18.6844 1.00009L23.1055 2.26325C24.3159 2.2981 25.0002 3.16079 25.0002 4.15799C25.0002 15.7074 15.6402 25.0048 4.1581 25.0001C3.15863 25.0001 2.29621 24.3156 2.26337 23.1054L1.00021 18.6843C0.824482 17.9063 1.34474 16.8748 2.26337 16.158L7.316 14.2633C7.93471 14.0523 8.96586 14.3055 9.84231 14.8948L11.1055 16.7896C13.5545 15.5808 15.5793 13.5553 16.7897 11.1054L14.8949 9.8422C14.3091 8.96523 14.056 7.93374 14.2634 7.31588L16.1581 2.26325C16.8776 1.34632 17.9087 0.821202 18.6844 1.00009ZM3.52653 18.6843L4.78968 23.1054C14.7623 23.0582 23.0584 14.7622 23.1055 4.78957L18.6844 3.52641L16.7897 7.94746L19.9476 10.4738C17.8715 15.4405 15.4312 17.8714 10.4739 19.9475L7.94758 16.7896L3.52653 18.6843Z" fill="#FEB803"/>
</svg>
